X:4695
T:Polska
A:Dalarna, lvdalen
C:e. Lars hs
M:3/4
O:Sweden
R:Polska
Z:Carol Turner
%%TUNEURL: http://www.leeds.ac.uk/music/Info/RRTuneBk/gettune/00000c61.html
%%ID:00000c61
K:A min
E>^G A>B c>A| B^G/B/ A3 B| c/B/c/d/ e2 ce | d2 B4 ::
c>d e2 e2| c>e dB/d/ cA| c>d e2 e2 | c>e dB/d/ cA| \
A^G EE G>A | B^G/B/ A4:|
